svgs/thin/shop.svg

<svg xmlns="http://www.w3.org/2000/svg" viewBox="0 0 640 512"><!--! Font Awesome Pro 6.6.0 by @fontawesome - https://fontawesome.com License - https://fontawesome.com/license (Commercial License) Copyright 2024 Fonticons, Inc. --><path d="M0 185.8c0-6.4 1.6-12.7 4.7-18.3L82.4 25C90.8 9.6 106.9 0 124.5 0l391 0c17.6 0 33.7 9.6 42.1 25l77.7 142.4c3.1 5.6 4.7 11.9 4.7 18.3c0 21.1-17.1 38.2-38.2 38.2L576 224l0 264c0 13.3-10.7 24-24 24l-32 0c-13.3 0-24-10.7-24-24l0-232c0-4.4 3.6-8 8-8s8 3.6 8 8l0 232c0 4.4 3.6 8 8 8l32 0c4.4 0 8-3.6 8-8l0-264L80 224l0 240c0 17.7 14.3 32 32 32l224 0c17.7 0 32-14.3 32-32l0-208c0-4.4 3.6-8 8-8s8 3.6 8 8l0 208c0 26.5-21.5 48-48 48l-224 0c-26.5 0-48-21.5-48-48l0-240-25.8 0C17.1 224 0 206.9 0 185.8zM72 208l496 0 33.8 0c12.3 0 22.2-10 22.2-22.2c0-3.7-.9-7.4-2.7-10.7L543.6 32.7C538 22.4 527.2 16 515.5 16l-391 0c-11.7 0-22.5 6.4-28.1 16.7L18.7 175.1c-1.8 3.3-2.7 6.9-2.7 10.7C16 198 26 208 38.2 208L72 208zm64 40c4.4 0 8 3.6 8 8l0 104c0 4.4 3.6 8 8 8l144 0c4.4 0 8-3.6 8-8l0-104c0-4.4 3.6-8 8-8s8 3.6 8 8l0 104c0 13.3-10.7 24-24 24l-144 0c-13.3 0-24-10.7-24-24l0-104c0-4.4 3.6-8 8-8z"/></svg>

<svg xmlns="http://www.w3.org/2000/svg" viewBox="0 0 640 512"><!--! Font Awesome Pro 6.4.2 by @fontawesome - https://fontawesome.com License - https://fontawesome.com/license (Commercial License) Copyright 2023 Fonticons, Inc. --><path d="M0 185.8c0-6.4 1.6-12.7 4.7-18.3L82.4 25C90.8 9.6 106.9 0 124.5 0h391c17.6 0 33.7 9.6 42.1 25l77.7 142.4c3.1 5.6 4.7 11.9 4.7 18.3c0 21.1-17.1 38.2-38.2 38.2H576V488c0 13.3-10.7 24-24 24H520c-13.3 0-24-10.7-24-24V256c0-4.4 3.6-8 8-8s8 3.6 8 8V488c0 4.4 3.6 8 8 8h32c4.4 0 8-3.6 8-8V224H80V464c0 17.7 14.3 32 32 32H336c17.7 0 32-14.3 32-32V256c0-4.4 3.6-8 8-8s8 3.6 8 8V464c0 26.5-21.5 48-48 48H112c-26.5 0-48-21.5-48-48V224H38.2C17.1 224 0 206.9 0 185.8zM72 208H568h33.8c12.3 0 22.2-10 22.2-22.2c0-3.7-.9-7.4-2.7-10.7L543.6 32.7C538 22.4 527.2 16 515.5 16h-391c-11.7 0-22.5 6.4-28.1 16.7L18.7 175.1c-1.8 3.3-2.7 6.9-2.7 10.7C16 198 26 208 38.2 208H72zm64 40c4.4 0 8 3.6 8 8V360c0 4.4 3.6 8 8 8H296c4.4 0 8-3.6 8-8V256c0-4.4 3.6-8 8-8s8 3.6 8 8V360c0 13.3-10.7 24-24 24H152c-13.3 0-24-10.7-24-24V256c0-4.4 3.6-8 8-8z"/></svg>
